SVG/close.svg

<?xml version="1.0" encoding="utf-8"?>
<!-- Generated by IcoMoon.io -->
<!DOCTYPE svg PUBLIC "-//W3C//DTD SVG 1.1//EN" "http://www.w3.org/Graphics/SVG/1.1/DTD/svg11.dtd">
<svg version="1.1" xmlns="http://www.w3.org/2000/svg" xmlns:xlink="http://www.w3.org/1999/xlink" width="11" height="14" viewBox="0 0 11 14">
<path fill="#444444" d="M10.141 10.328q0 0.312-0.219 0.531l-1.062 1.062q-0.219 0.219-0.531 0.219t-0.531-0.219l-2.297-2.297-2.297 2.297q-0.219 0.219-0.531 0.219t-0.531-0.219l-1.062-1.062q-0.219-0.219-0.219-0.531t0.219-0.531l2.297-2.297-2.297-2.297q-0.219-0.219-0.219-0.531t0.219-0.531l1.062-1.062q0.219-0.219 0.531-0.219t0.531 0.219l2.297 2.297 2.297-2.297q0.219-0.219 0.531-0.219t0.531 0.219l1.062 1.062q0.219 0.219 0.219 0.531t-0.219 0.531l-2.297 2.297 2.297 2.297q0.219 0.219 0.219 0.531z"></path>
</svg>

<svg xmlns="http://www.w3.org/2000/svg" viewBox="0 0 11 14"><path d="M10.14 10.328q0 .312-.218.53L8.86 11.922q-.22.22-.53.22t-.532-.22L5.5 9.625 3.205 11.92q-.22.22-.53.22t-.532-.22L1.08 10.86q-.22-.22-.22-.532t.22-.53L3.377 7.5 1.08 5.203q-.22-.22-.22-.53t.22-.532l1.062-1.06q.22-.22.53-.22t.532.22L5.5 5.375 7.8 3.08q.22-.22.53-.22t.532.22l1.062 1.06q.22.22.22.532t-.22.53L7.625 7.5l2.297 2.297q.22.22.22.53z" /></svg>
